src/assets/filled/MessageNotif.svg

<?xml version="1.0" encoding="UTF-8"?>
<svg width="24" height="24" viewBox="0 0 24 24" xmlns="http://www.w3.org/2000/svg">
 <path d="m20 6.75c1.5188 0 2.75-1.2312 2.75-2.75s-1.2312-2.75-2.75-2.75-2.75 1.2312-2.75 2.75 1.2312 2.75 2.75 2.75z"/>
 <path d="m19.04 8.15c-1.57-0.34-2.85-1.62-3.19-3.19-0.13-0.61-0.14-1.2-0.03-1.76 0.13-0.62-0.33-1.2-0.97-1.2h-7.85c-2.76 0-5 2.24-5 5v6.95c0 2.76 2.24 5 5 5h1.5c0.28 0 0.64 0.18 0.8 0.4l1.5 1.99c0.66 0.88 1.74 0.88 2.4 0l1.5-1.99c0.19-0.25 0.48-0.4 0.8-0.4h1.51c2.76 0 4.99-2.23 4.99-4.99v-4.81c0-0.63-0.58-1.09-1.2-0.97-0.56 0.1-1.15 0.1-1.76-0.03zm-11.04 3.85c-0.56 0-1-0.45-1-1s0.44-1 1-1c0.55 0 1 0.45 1 1s-0.44 1-1 1zm4 0c-0.56 0-1-0.45-1-1s0.44-1 1-1c0.55 0 1 0.45 1 1s-0.44 1-1 1zm4 0c-0.56 0-1-0.45-1-1s0.44-1 1-1c0.55 0 1 0.45 1 1s-0.44 1-1 1z"/>
</svg>

<svg width="24" height="24" viewBox="0 0 24 24"  xmlns="http://www.w3.org/2000/svg">
<path d="M20 6.75C21.5188 6.75 22.75 5.51878 22.75 4C22.75 2.48122 21.5188 1.25 20 1.25C18.4812 1.25 17.25 2.48122 17.25 4C17.25 5.51878 18.4812 6.75 20 6.75Z" />
<path d="M19.04 8.15C17.47 7.81 16.19 6.53 15.85 4.96C15.72 4.35 15.71 3.76 15.82 3.2C15.95 2.58 15.49 2 14.85 2H7C4.24 2 2 4.24 2 7V13.95C2 16.71 4.24 18.95 7 18.95H8.5C8.78 18.95 9.14 19.13 9.3 19.35L10.8 21.34C11.46 22.22 12.54 22.22 13.2 21.34L14.7 19.35C14.89 19.1 15.18 18.95 15.5 18.95H17.01C19.77 18.95 22 16.72 22 13.96V9.15C22 8.52 21.42 8.06 20.8 8.18C20.24 8.28 19.65 8.28 19.04 8.15ZM8 12C7.44 12 7 11.55 7 11C7 10.45 7.44 10 8 10C8.55 10 9 10.45 9 11C9 11.55 8.56 12 8 12ZM12 12C11.44 12 11 11.55 11 11C11 10.45 11.44 10 12 10C12.55 10 13 10.45 13 11C13 11.55 12.56 12 12 12ZM16 12C15.44 12 15 11.55 15 11C15 10.45 15.44 10 16 10C16.55 10 17 10.45 17 11C17 11.55 16.56 12 16 12Z" />
</svg>
